vms/client/nx_vms_client_desktop/external_resources/skin/48x48/Outline/checkmark.svg

<svg width="48" height="48" viewBox="0 0 48 48" fill="none" xmlns="http://www.w3.org/2000/svg">
<path class="Primary" fill-rule="evenodd" clip-rule="evenodd" d="M40 24C40 32.8366 32.8366 40 24 40C15.1634 40 8 32.8366 8 24C8 15.1634 15.1634 8 24 8C32.8366 8 40 15.1634 40 24ZM44 24C44 35.0457 35.0457 44 24 44C12.9543 44 4 35.0457 4 24C4 12.9543 12.9543 4 24 4C35.0457 4 44 12.9543 44 24ZM33.4195 20.4089C34.1976 19.6249 34.1928 18.3586 33.4089 17.5805C32.6249 16.8024 31.3586 16.8071 30.5805 17.5911L22.7745 25.456L18.7193 21.8968C17.8891 21.1682 16.6255 21.2505 15.8968 22.0807C15.1682 22.9109 15.2505 24.1745 16.0807 24.9032L22.9634 30.944L33.4195 20.4089Z" fill="#E1E7EA"/>
</svg>

<svg xmlns="http://www.w3.org/2000/svg" width="48" height="48" fill="none" viewBox="0 0 48 48">
  <g class="48x48/Outline/checkmark">
    <path fill="#E1E7EA" fill-rule="evenodd" d="M40 24c0 8.837-7.163 16-16 16S8 32.837 8 24 15.163 8 24 8s16 7.163 16 16Zm4 0c0 11.046-8.954 20-20 20S4 35.046 4 24 12.954 4 24 4s20 8.954 20 20Zm-10.58-3.591a2 2 0 0 0-2.84-2.818l-7.805 7.865-4.056-3.56a2 2 0 0 0-2.638 3.007l6.882 6.041L33.42 20.409Z" class="Primary" clip-rule="evenodd"/>
  </g>
</svg>
